X: 26981
T: Miss E Lyall
R: reel
M: 4/4
K: Gmajor
BA|G2 B2 d2 g2|bbba g4|G2 B2 d2 g2|fffe d4|
D2 F2 A2 d2|fffe d4|D2 F2 A2 c2|BBBA G2 BA|
G2 B2 d2 g2|bbba g4|G2 B2 d2 g2|fffe d4|
D2 F2 A2 d2|fffe d4|d2 fedc BA|G2 G2 G2 Bc||
d4 e2 d2|B4 c2 B2|G4 A2 G2|E8|
D2 F2 A2 d2|fffe d4|D2 F2 A2 c2|BBBA G2 Bc|
d4 e2 d2|B4 c2 B2|G4 A2 G2|E8|
D2 F2 A2 d2|fffe d4|d2fe dcBA|G2 G2 G2||

